X: 1998
T: Young May Moon
C:trad
B: australian traditional tunes wiki
M:6/8
L:1/8
R: Jig
Q: 3/8=100
K:C
V:1 
G|"C"c2Gc2G|"Am"A2G "G"G2G|"C"c2c dcd|e2c c2c|
"F"f2f "C"e2e|"G"ded BAG|"Am"AGF EFG|A2G"G"G2:|
|:g|"Am"a2a "C"gec|"Am"a2a "C"g2g |"Am"a2a "C"gec|"G"Bdd d2e|
"F"f2f "C"e2e|"G"dec BAG|"Am"AGF EFG|A2G "G"G2:|
% abcbook-tune_id 6342d5bed6686beb4d420017


% abcbook-boost 0
% abcbook-tablature 
% abcbook-transpose 
% abcbook-lastupdated 1665324493373
% abcbook-soundfonts 
% abcbook-repeats 1
% NFF Book 2020
% Bush Traditions recording played by Roland Clarke

